X:1
T:Title
%%score { ( 1 3 ) | ( 2 4 ) }
L:1/8
M:4/4
K:Ab
V:1 treble nm="Grand Piano"
V:3 treble 
V:2 bass 
V:4 bass 
V:1
 z4 z2[Q:1/4=94] [CA][DB] | [Ec][Ec][Ec][Ec] [Ec]2 [EB][EA] | [FB]FFF F2 AA | G2 GF E2 d2 | %4
 [Ec]6[K:bass][K:treble] z2 | cccc c2 dc |[M:3/4] [FB]F FF F2 |[M:1/4] [FA][=EB] | %8
[M:4/4] [Ec]2 [Ee][Fd] [Ec]2 [DB]2 |[M:3/4] A6 |[M:1/4] c_c |[M:4/4] c6 z2 | z2 B4 z2 | %13
 A2 AA [=DB]2 [DF]2 |[M:9/8] B6- B z z |[M:4/4] c6 z2 | d6 z2 | [Ec]2 [Ee][Fd] [Ec]2 [DB]2 | %18
[M:3/4] A6 |] %19
V:2
 z4 z2 [A,,A,][A,,A,] | [A,,A,][A,,A,][A,,A,][A,,A,] [A,,A,]2 [B,,A,][C,A,] | %2
 [D,A,][D,A,D][D,A,D][D,A,D] [D,A,D]2 [D,F,D][D,F,D] | [E,B,D]2 [E,B,D][E,B,D] [E,G,D]2 [E,G,E]2 | %4
 A,4 z2[K:treble] [A,C][A,DA] | [A,EA][A,EA][A,EA][A,EA] [A,EA]2 [A,FA][A,EA] | %6
[M:3/4][K:bass] [D,D][D,A,D] [D,A,D][D,A,D] [D,A,D]2 |[M:1/4] [D,A,][D,A,] | %8
[M:4/4] [E,A,]2 [C,A,][D,A,] [E,A,]2 [E,G,]2 |[M:3/4] z2 F,F, E,2 |[M:1/4] E=D | %11
[M:4/4] E6[K:treble] z2 | z2 D4 z2 | [F,A,C]2 [F,A,C][F,A,C] [B,,A,]2 [B,,A,]2 | %14
[M:9/8] [E,G,E][E,G,][F,A,] [F,A,] [E,G,]2- [E,G,]E=D |[M:4/4] E6[K:treble] z2 | F6[K:bass] z2 | %17
 [E,A,]2 [C,A,][D,A,] [E,A,]2 [E,G,]2 |[M:3/4] z2 F,F, E,2 |] %19
V:3
 x8 | x8 | x8 | x8 | z2[K:bass] C,E, A,2[K:treble] AB | x8 |[M:3/4] x6 |[M:1/4] x2 |[M:4/4] x8 | %9
[M:3/4] [A,C]2 DD C2 |[M:1/4] x2 |[M:4/4] z2 A,>A, A,A,dc | c2 z z/ G,/ G,G,cB | x8 | %14
[M:9/8] z E=D D E2- Ec_c |[M:4/4] z2 A,A, A,2 ee | z2 A,A, A,2 [A,FA][=EB] | x8 | %18
[M:3/4] [A,C]2 DD C2 |] %19
V:4
 x8 | x8 | x8 | x8 | A,,2 z2 z4[K:treble] | x8 |[M:3/4][K:bass] x6 |[M:1/4] x2 |[M:4/4] x8 | %9
[M:3/4] A,,6 |[M:1/4] x2 |[M:4/4] z2 A,,>E, z2[K:treble] [A,F][A,E] | %12
 [E,A,E]2 [E,G,]>E, E,E,[E,A,E][E,G,D] | x8 |[M:9/8] x9 |[M:4/4] z2 A,,E, z2[K:treble] _GG | %16
 z2[K:bass] D,D, D,2 D,[D,A,] | x8 |[M:3/4] G,,6 |] %19

